Numix-GalliumOS/64/mimetypes/application-x-gzip.svg

<svg xmlns="http://www.w3.org/2000/svg" xmlns:xlink="http://www.w3.org/1999/xlink" width="64px" height="64px" viewBox="0 0 64 64" version="1.1">
<g id="surface1">
<path style=" stroke:none;fill-rule:nonzero;fill:rgb(75.686275%,58.431373%,32.54902%);fill-opacity:1;" d="M 10.671875 0 C 9.296875 0 8 1.355469 8 2.789062 L 8 61.210938 C 8 62.566406 9.375 64 10.671875 64 L 53.328125 64 C 54.625 64 56 62.566406 56 61.210938 L 56 18 L 38 0 Z M 10.671875 0 "/>
<path style=" stroke:none;fill-rule:nonzero;fill:rgb(0%,0%,0%);fill-opacity:0.196078;" d="M 8 48 L 8 61.335938 C 8 62.632812 9.375 64 10.664062 64 L 53.335938 64 C 54.625 64 56 62.632812 56 61.335938 L 56 48 Z M 8 48 "/>
<path style=" stroke:none;fill-rule:nonzero;fill:rgb(100%,100%,100%);fill-opacity:1;" d="M 20.6875 53.300781 C 20.203125 53.300781 19.796875 53.386719 19.46875 53.566406 C 19.140625 53.738281 18.867188 53.988281 18.648438 54.308594 C 18.4375 54.613281 18.289062 54.988281 18.1875 55.425781 C 18.101562 55.855469 18.054688 56.339844 18.054688 56.863281 C 18.054688 58.089844 18.25 58.988281 18.632812 59.574219 C 19.015625 60.144531 19.578125 60.433594 20.328125 60.433594 C 20.445312 60.433594 20.578125 60.425781 20.71875 60.417969 C 20.867188 60.402344 20.992188 60.386719 21.117188 60.363281 L 21.117188 56.636719 L 23.140625 56.636719 L 23.140625 61.738281 C 22.898438 61.824219 22.523438 61.925781 22.007812 62.035156 C 21.5 62.144531 20.882812 62.199219 20.164062 62.199219 C 19.523438 62.199219 18.953125 62.089844 18.4375 61.871094 C 17.929688 61.636719 17.5 61.300781 17.132812 60.863281 C 16.773438 60.410156 16.492188 59.855469 16.296875 59.191406 C 16.101562 58.519531 16 57.746094 16 56.863281 C 16 55.996094 16.117188 55.230469 16.34375 54.574219 C 16.578125 53.902344 16.890625 53.339844 17.28125 52.886719 C 17.679688 52.433594 18.140625 52.097656 18.679688 51.878906 C 19.21875 51.644531 19.796875 51.535156 20.40625 51.535156 C 20.804688 51.535156 21.15625 51.566406 21.460938 51.628906 C 21.78125 51.683594 22.054688 51.753906 22.28125 51.832031 C 22.515625 51.910156 22.703125 51.988281 22.84375 52.074219 C 23 52.167969 23.109375 52.230469 23.1875 52.277344 L 22.664062 53.894531 C 22.421875 53.738281 22.125 53.605469 21.773438 53.480469 C 21.421875 53.363281 21.0625 53.300781 20.6875 53.300781 "/>
<path style=" stroke:none;fill-rule:nonzero;fill:rgb(0%,0%,0%);fill-opacity:0.196078;" d="M 42 18 L 56 32 L 56 18 Z M 42 18 "/>
<path style=" stroke:none;fill-rule:nonzero;fill:rgb(100%,100%,100%);fill-opacity:1;" d="M 31.101562 53.183594 C 30.632812 53.910156 30.195312 54.589844 29.804688 55.230469 C 29.40625 55.871094 29.039062 56.480469 28.703125 57.066406 C 28.359375 57.636719 28.039062 58.191406 27.734375 58.730469 C 27.4375 59.261719 27.148438 59.785156 26.875 60.300781 L 31.25 60.300781 L 31.25 61.980469 L 24.539062 61.980469 L 24.539062 60.808594 C 24.78125 60.339844 25.039062 59.839844 25.3125 59.324219 C 25.585938 58.800781 25.890625 58.238281 26.234375 57.644531 C 26.570312 57.050781 26.9375 56.402344 27.335938 55.707031 C 27.742188 55.019531 28.1875 54.261719 28.671875 53.449219 L 24.75 53.449219 L 24.75 51.761719 L 31.101562 51.761719 L 31.101562 53.183594 "/>
<path style=" stroke:none;fill-rule:nonzero;fill:rgb(100%,100%,100%);fill-opacity:0.392157;" d="M 38 0 L 55.984375 18 L 40.757812 18 C 39.410156 18 38 16.574219 38 15.226562 Z M 38 0 "/>
<path style=" stroke:none;fill-rule:nonzero;fill:rgb(100%,100%,100%);fill-opacity:1;" d="M 32.898438 61.980469 L 32.898438 60.300781 L 35.117188 60.300781 L 35.117188 53.449219 L 32.898438 53.449219 L 32.898438 51.761719 L 39.359375 51.761719 L 39.359375 53.449219 L 37.15625 53.449219 L 37.15625 60.300781 L 39.359375 60.300781 L 39.359375 61.980469 L 32.898438 61.980469 "/>
<path style=" stroke:none;fill-rule:evenodd;fill:rgb(97.647059%,97.647059%,97.647059%);fill-opacity:1;" d="M 18 0 L 24 0 L 24 6 L 18 6 Z M 18 0 "/>
<path style=" stroke:none;fill-rule:nonzero;fill:rgb(100%,100%,100%);fill-opacity:1;" d="M 43.921875 51.644531 C 45.210938 51.644531 46.21875 51.917969 46.929688 52.457031 C 47.640625 52.988281 48 53.855469 48 55.066406 C 48 56.285156 47.640625 57.175781 46.914062 57.722656 C 46.203125 58.261719 45.1875 58.535156 43.867188 58.535156 L 43.148438 58.535156 L 43.148438 61.980469 L 41.125 61.980469 L 41.125 51.894531 C 41.320312 51.855469 41.539062 51.816406 41.78125 51.777344 C 42.03125 51.746094 42.289062 51.722656 42.539062 51.714844 C 42.789062 51.691406 43.039062 51.675781 43.28125 51.667969 C 43.515625 51.652344 43.734375 51.644531 43.921875 51.644531 M 44.148438 53.417969 C 44.03125 53.417969 43.859375 53.417969 43.640625 53.433594 C 43.429688 53.433594 43.265625 53.441406 43.148438 53.464844 L 43.148438 56.769531 L 43.96875 56.769531 C 44.617188 56.769531 45.101562 56.636719 45.429688 56.386719 C 45.765625 56.121094 45.929688 55.675781 45.929688 55.050781 C 45.929688 54.457031 45.765625 54.035156 45.429688 53.792969 C 45.117188 53.542969 44.6875 53.417969 44.148438 53.417969 "/>
<path style=" stroke:none;fill-rule:evenodd;fill:rgb(97.647059%,97.647059%,97.647059%);fill-opacity:1;" d="M 24 6 L 30 6 L 30 12 L 24 12 Z M 24 6 "/>
<path style=" stroke:none;fill-rule:evenodd;fill:rgb(97.647059%,97.647059%,97.647059%);fill-opacity:1;" d="M 18 12 L 24 12 L 24 18 L 18 18 Z M 18 12 "/>
<path style=" stroke:none;fill-rule:evenodd;fill:rgb(97.647059%,97.647059%,97.647059%);fill-opacity:1;" d="M 24 18 L 30 18 L 30 24 L 24 24 Z M 24 18 "/>
<path style=" stroke:none;fill-rule:evenodd;fill:rgb(97.647059%,97.647059%,97.647059%);fill-opacity:1;" d="M 18 24 L 24 24 L 24 30 L 18 30 Z M 18 24 "/>
<path style=" stroke:none;fill-rule:evenodd;fill:rgb(97.647059%,97.647059%,97.647059%);fill-opacity:1;" d="M 18 32 L 30 32 L 30 44 L 18 44 Z M 18 32 "/>
</g>
</svg>

<svg xmlns="http://www.w3.org/2000/svg" viewBox="0 0 64 64">
 <g>
  <path d="m 10.672 0 c -1.375 0 -2.672 1.355 -2.672 2.789 l 0 58.42 c 0 1.355 1.375 2.789 2.672 2.789 l 42.656 0 c 1.297 0 2.672 -1.434 2.672 -2.789 l 0 -43.21 l -18 -18 m -27.328 0" style="fill:#c19553;fill-opacity:1;stroke:none;fill-rule:nonzero"/>
  <path d="m 8 48 l 0 13.336 c 0 1.297 1.375 2.664 2.664 2.664 l 42.672 0 c 1.289 0 2.664 -1.367 2.664 -2.664 l 0 -13.336 m -48 0" style="fill:#000;fill-opacity:0.196;stroke:none;fill-rule:nonzero"/>
  <path d="m 20.688 53.3 c -0.484 0 -0.891 0.086 -1.219 0.266 c -0.328 0.172 -0.602 0.422 -0.82 0.742 c -0.211 0.305 -0.359 0.68 -0.461 1.117 c -0.086 0.43 -0.133 0.914 -0.133 1.438 c 0 1.227 0.195 2.125 0.578 2.711 c 0.383 0.57 0.945 0.859 1.695 0.859 c 0.117 0 0.25 -0.008 0.391 -0.016 c 0.148 -0.016 0.273 -0.031 0.398 -0.055 l 0 -3.727 l 2.023 0 l 0 5.102 c -0.242 0.086 -0.617 0.188 -1.133 0.297 c -0.508 0.109 -1.125 0.164 -1.844 0.164 c -0.641 0 -1.211 -0.109 -1.727 -0.328 c -0.508 -0.234 -0.938 -0.57 -1.305 -1.01 c -0.359 -0.453 -0.641 -1.01 -0.836 -1.672 c -0.195 -0.672 -0.297 -1.445 -0.297 -2.328 c 0 -0.867 0.117 -1.633 0.344 -2.289 c 0.234 -0.672 0.547 -1.234 0.938 -1.688 c 0.398 -0.453 0.859 -0.789 1.398 -1.01 c 0.539 -0.234 1.117 -0.344 1.727 -0.344 c 0.398 0 0.75 0.031 1.055 0.094 c 0.32 0.055 0.594 0.125 0.82 0.203 c 0.234 0.078 0.422 0.156 0.563 0.242 c 0.156 0.094 0.266 0.156 0.344 0.203 l -0.523 1.617 c -0.242 -0.156 -0.539 -0.289 -0.891 -0.414 c -0.352 -0.117 -0.711 -0.18 -1.086 -0.18" style="fill:#fff;fill-opacity:1;stroke:none;fill-rule:nonzero"/>
  <path d="m 42 18 l 14 14 l 0 -14 m -14 0" style="fill:#000;fill-opacity:0.196;stroke:none;fill-rule:nonzero"/>
  <path d="m 31.1 53.18 c -0.469 0.727 -0.906 1.406 -1.297 2.047 c -0.398 0.641 -0.766 1.25 -1.102 1.836 c -0.344 0.57 -0.664 1.125 -0.969 1.664 c -0.297 0.531 -0.586 1.055 -0.859 1.57 l 4.375 0 l 0 1.68 l -6.711 0 l 0 -1.172 c 0.242 -0.469 0.5 -0.969 0.773 -1.484 c 0.273 -0.523 0.578 -1.086 0.922 -1.68 c 0.336 -0.594 0.703 -1.242 1.102 -1.938 c 0.406 -0.688 0.852 -1.445 1.336 -2.258 l -3.922 0 l 0 -1.688 l 6.352 0 l 0 1.422" style="fill:#fff;fill-opacity:1;stroke:none;fill-rule:nonzero"/>
  <path d="m 38 0 l 17.984 18 l -15.227 0 c -1.348 0 -2.758 -1.426 -2.758 -2.773 m 0 -15.227" style="fill:#fff;fill-opacity:0.392;stroke:none;fill-rule:nonzero"/>
  <path d="m 32.898 61.98 l 0 -1.68 l 2.219 0 l 0 -6.852 l -2.219 0 l 0 -1.688 l 6.461 0 l 0 1.688 l -2.203 0 l 0 6.852 l 2.203 0 l 0 1.68 l -6.461 0" style="fill:#fff;fill-opacity:1;stroke:none;fill-rule:nonzero"/>
  <path d="m 18 0 l 6 0 l 0 6 l -6 0 m 0 -6" style="fill:#f9f9f9;fill-opacity:1;stroke:none;fill-rule:evenodd"/>
  <path d="m 43.922 51.645 c 1.289 0 2.297 0.273 3.01 0.813 c 0.711 0.531 1.07 1.398 1.07 2.609 c 0 1.219 -0.359 2.109 -1.086 2.656 c -0.711 0.539 -1.727 0.813 -3.047 0.813 l -0.719 0 l 0 3.445 l -2.023 0 l 0 -10.09 c 0.195 -0.039 0.414 -0.078 0.656 -0.117 c 0.25 -0.031 0.508 -0.055 0.758 -0.063 c 0.25 -0.023 0.5 -0.039 0.742 -0.047 c 0.234 -0.016 0.453 -0.023 0.641 -0.023 m 0.227 1.773 c -0.117 0 -0.289 0 -0.508 0.016 c -0.211 0 -0.375 0.008 -0.492 0.031 l 0 3.305 l 0.82 0 c 0.648 0 1.133 -0.133 1.461 -0.383 c 0.336 -0.266 0.5 -0.711 0.5 -1.336 c 0 -0.594 -0.164 -1.016 -0.5 -1.258 c -0.313 -0.25 -0.742 -0.375 -1.281 -0.375" style="fill:#fff;fill-opacity:1;stroke:none;fill-rule:nonzero"/>
  <path d="m 24 6 l 6 0 l 0 6 l -6 0 m 0 -6" style="fill:#f9f9f9;fill-opacity:1;stroke:none;fill-rule:evenodd"/>
  <path d="m 18 12 l 6 0 l 0 6 l -6 0 m 0 -6" style="fill:#f9f9f9;fill-opacity:1;stroke:none;fill-rule:evenodd"/>
  <path d="m 24 18 l 6 0 l 0 6 l -6 0 m 0 -6" style="fill:#f9f9f9;fill-opacity:1;stroke:none;fill-rule:evenodd"/>
  <path d="m 18 24 l 6 0 l 0 6 l -6 0 m 0 -6" style="fill:#f9f9f9;fill-opacity:1;stroke:none;fill-rule:evenodd"/>
  <path d="m 18 32 l 12 0 l 0 12 l -12 0 m 0 -12" style="fill:#f9f9f9;fill-opacity:1;stroke:none;fill-rule:evenodd"/>
 </g>
</svg>
